apps/scalable/chromium-dev.svg

<?xml version="1.0" encoding="UTF-8" standalone="no"?>
<svg
   height="48"
   width="48"
   version="1.1"
   id="svg14"
   sodipodi:docname="chromium-dev.svg"
   inkscape:version="1.1.2 (0a00cf5339, 2022-02-04)"
   xmlns:inkscape="http://www.inkscape.org/namespaces/inkscape"
   xmlns:sodipodi="http://sodipodi.sourceforge.net/DTD/sodipodi-0.dtd"
   xmlns="http://www.w3.org/2000/svg"
   xmlns:svg="http://www.w3.org/2000/svg"
   xmlns:rdf="http://www.w3.org/1999/02/22-rdf-syntax-ns#"
   xmlns:cc="http://creativecommons.org/ns#"
   xmlns:dc="http://purl.org/dc/elements/1.1/">
  <metadata
     id="metadata20">
    <rdf:RDF>
      <cc:Work
         rdf:about="">
        <dc:format>image/svg+xml</dc:format>
        <dc:type
           rdf:resource="http://purl.org/dc/dcmitype/StillImage" />
      </cc:Work>
    </rdf:RDF>
  </metadata>
  <defs
     id="defs18" />
  <sodipodi:namedview
     pagecolor="#ffffff"
     bordercolor="#666666"
     borderopacity="1"
     objecttolerance="10"
     gridtolerance="10"
     guidetolerance="10"
     inkscape:pageopacity="0"
     inkscape:pageshadow="2"
     inkscape:window-width="1920"
     inkscape:window-height="1029"
     id="namedview16"
     showgrid="false"
     inkscape:zoom="7.8020835"
     inkscape:cx="22.750333"
     inkscape:cy="47.102803"
     inkscape:window-x="0"
     inkscape:window-y="0"
     inkscape:window-maximized="1"
     inkscape:current-layer="svg14"
     inkscape:pagecheckerboard="0" />
  <path
     d="m46.824586 25.823613a22.996841 22.996841 0 0 1 -24.027475 21.873702 22.996841 22.996841 0 0 1 -21.91753251-23.987501 22.996841 22.996841 0 0 1 23.94744751-21.9612883 22.996841 22.996841 0 0 1 22.004971 23.9073133"
     fill="#71c7d7"
     id="path2" />
  <g
     fill-rule="evenodd"
     transform="matrix(.10181921 0 0 .10181921 -1.82149 -1.731303)"
     id="g10">
    <path
       id="path4"
       style="fill:#5e81ac;fill-opacity:1;stroke-width:0.101819"
       d="m 23.859375,1.6503906 c -9.399683,0 -17.485416,5.6214026 -21.0800781,13.6855474 0.8064477,1.777191 1.8525223,3.483072 3.1445312,5.066406 3.0334723,3.717465 6.9838549,6.240849 11.2597659,7.515625 3.439132,-8.419331 11.710589,-14.353516 21.367187,-14.353516 2.043583,0 4.023361,0.264906 5.910157,0.763672 C 40.659883,6.8069557 32.862296,1.6503906 23.859375,1.6503906 Z"
       transform="matrix(9.8213294,0,0,9.8213294,17.889453,17.003697)"
       sodipodi:nodetypes="scscscs" />
    <path
       id="path6"
       style="fill:#88c0d0;fill-opacity:1;stroke-width:0.101819"
       d="m 2.7792969,15.335938 c -3.42414269,7.700081 -2.4868151,17.003205 3.2050781,23.978515 6.602008,8.090637 17.551229,10.53725 26.722656,6.722656 0.635891,-1.845103 1.04729,-3.803724 1.197266,-5.841797 0.332324,-4.51607 -0.660374,-8.82343 -2.646485,-12.542968 -8.866764,3.026914 -19.063291,0.434618 -25.3339839,-7.25 C 4.6318192,18.81901 3.5857446,17.113129 2.7792969,15.335938 Z"
       transform="matrix(9.8213294,0,0,9.8213294,17.889453,17.003697)"
       sodipodi:nodetypes="cscscsc" />
    <path
       id="path8"
       style="fill:#81a1c1;fill-opacity:1;stroke-width:0.999998"
       d="m 396.50937,150.22466 c -53.81649,-0.24068 -107.36588,19.68638 -147.97213,54.9956 64.14073,41.15656 104.61479,116.36526 102.93965,192.64042 -0.30963,24.21688 -4.45956,48.39047 -12.36091,71.28863 71.01029,-28.98156 124.69205,-96.20946 136.55133,-172.05872 7.89618,-47.15665 0.48257,-96.78339 -21.26561,-139.40407 -18.86692,-4.97907 -38.38164,-7.46805 -57.89233,-7.46186 z" />
  </g>
  <path
     d="m 23.589472,14.712374 a 10.026072,10.026072 0 0 0 -10.025391,10.02539 10.026072,10.026072 0 0 0 8.326172,9.871094 c 0.827975,-4.335908 4.64666,-7.628906 9.21875,-7.628906 0.750087,0 1.475868,0.09839 2.175781,0.265625 a 10.026072,10.026072 0 0 0 0.332031,-2.507813 10.026072,10.026072 0 0 0 -10.027343,-10.02539 z m 7.519531,14.267578 c -3.537118,0 -6.474705,2.463409 -7.208985,5.773437 a 10.026072,10.026072 0 0 0 8.689454,-5.625 c -0.478314,-0.09658 -0.972917,-0.148437 -1.480469,-0.148437 z"
     id="circle12-3"
     style="fill:#ffffff;fill-opacity:1" />
  <path
     id="path4497"
     style="fill:#ffffff;fill-opacity:0.996212;stroke-width:3.40157;stroke-linecap:round;stroke-linejoin:round;stroke-opacity:0.0492424;paint-order:fill markers stroke"
     d="m 39.498668,36.369087 a 8.3898306,8.3898306 0 0 1 -8.389831,8.389831 8.3898306,8.3898306 0 0 1 -8.38983,-8.389831 8.3898306,8.3898306 0 0 1 8.38983,-8.38983 8.3898306,8.3898306 0 0 1 8.389831,8.38983 z" />
  <g
     aria-label="DEV"
     transform="matrix(0.8708302,0,0,1.1483295,-0.26404364,0.01315503)"
     style="font-style:normal;font-variant:normal;font-weight:bold;font-stretch:condensed;font-size:8.67424px;line-height:1.25;font-family:'Roboto Condensed';-inkscape-font-specification:'Roboto Condensed, Bold Condensed';letter-spacing:0px;word-spacing:0px;fill:#638fd2;fill-opacity:1;stroke:none;stroke-width:0.216856"
     id="text4506">
    <path
       style="fill:#81a1c1;fill-opacity:1;stroke-width:0.216856"
       d="m 25.767578,32.724609 v 7.082032 h 1.623047 c 0.550797,0 1.006232,-0.274288 1.365234,-0.822266 0.359002,-0.547979 0.53711,-1.255353 0.53711,-2.121094 v -1.191406 c 0,-0.865742 -0.178108,-1.573116 -0.53711,-2.121094 -0.359002,-0.551221 -0.814437,-0.826172 -1.365234,-0.826172 z m 4.25,0 v 7.082032 h 3.171875 v -1.103516 h -2.121094 v -2.003906 h 1.802735 V 35.59375 h -1.802735 v -1.759766 h 2.113282 v -1.109375 z m 3.34375,0 1.501953,7.082032 h 1.091797 l 1.501953,-7.082032 h -1.103515 l -0.896485,5.28711 -0.04102,0.257812 h -0.02148 l -0.04102,-0.271484 -0.888672,-5.273438 z m -6.542969,1.109375 h 0.513672 c 0.292611,0 0.516457,0.166026 0.673828,0.5 0.15983,0.333976 0.240235,0.776904 0.240235,1.328125 v 1.201172 c 0,0.554463 -0.0804,1.000673 -0.240235,1.337891 -0.157371,0.333975 -0.381217,0.501953 -0.673828,0.501953 h -0.513672 z"
       transform="scale(1.1483295,0.87083019)"
       id="path4508" />
  </g>
</svg>

<?xml version="1.0" encoding="UTF-8" standalone="no"?>
<svg
   xmlns:dc="http://purl.org/dc/elements/1.1/"
   xmlns:cc="http://creativecommons.org/ns#"
   xmlns:rdf="http://www.w3.org/1999/02/22-rdf-syntax-ns#"
   xmlns:svg="http://www.w3.org/2000/svg"
   xmlns="http://www.w3.org/2000/svg"
   xmlns:sodipodi="http://sodipodi.sourceforge.net/DTD/sodipodi-0.dtd"
   xmlns:inkscape="http://www.inkscape.org/namespaces/inkscape"
   height="48"
   width="48"
   version="1.1"
   id="svg14"
   sodipodi:docname="chromium-dev.svg"
   inkscape:version="1.0.2 (e86c870879, 2021-01-15)">
  <metadata
     id="metadata20">
    <rdf:RDF>
      <cc:Work
         rdf:about="">
        <dc:format>image/svg+xml</dc:format>
        <dc:type
           rdf:resource="http://purl.org/dc/dcmitype/StillImage" />
        <dc:title />
      </cc:Work>
    </rdf:RDF>
  </metadata>
  <defs
     id="defs18" />
  <sodipodi:namedview
     pagecolor="#ffffff"
     bordercolor="#666666"
     borderopacity="1"
     objecttolerance="10"
     gridtolerance="10"
     guidetolerance="10"
     inkscape:pageopacity="0"
     inkscape:pageshadow="2"
     inkscape:window-width="1920"
     inkscape:window-height="1028"
     id="namedview16"
     showgrid="false"
     inkscape:zoom="13.906433"
     inkscape:cx="46.056802"
     inkscape:cy="18.536075"
     inkscape:window-x="0"
     inkscape:window-y="24"
     inkscape:window-maximized="1"
     inkscape:current-layer="svg14"
     inkscape:document-rotation="0" />
  <path
     d="m46.860068 25.804781a22.996841 22.996841 0 0 1 -24.027475 21.873703 22.996841 22.996841 0 0 1 -21.9175321-23.987501 22.996841 22.996841 0 0 1 23.9474471-21.9612886 22.996841 22.996841 0 0 1 22.004972 23.9073136"
     fill="#71c7d7"
     id="path2"
     style="fill:#7ba1db;fill-opacity:1" />
  <g
     fill-rule="evenodd"
     transform="matrix(.10181921 0 0 .10181921 -1.82149 -1.731303)"
     id="g10">
    <path
       d="m252.21875 33.21875c-92.31738 0-171.726889 55.205633-207.03125 134.40625 7.920389 17.45438 18.185755 34.19956 30.875 49.75 29.79273 36.51045 68.59862 61.29251 110.59375 73.8125 33.77685-82.68902 115.00312-140.96875 209.84375-140.96875 20.0707 0 39.53166 2.60145 58.0625 7.5-37.33141-73.867881-113.9231-124.5-202.34375-124.5zm-214.125 152.40625c-.420007 1.21295-.81887 2.43404-1.21875 3.65625.399463-1.22246.798213-2.43986 1.21875-3.65625zm-1.21875 3.65625c-.40202 1.22875-.806023 2.4496-1.1875 3.6875.37836-1.22823.788037-2.46504 1.1875-3.6875zm-2.28125 7.375c-.354411 1.22416-.697028 2.4549-1.03125 3.6875.336064-1.2389.674023-2.45379 1.03125-3.6875zm-1.03125 3.6875c-.337962 1.2464-.682877 2.49517-1 3.75.314872-1.24379.663936-2.5111 1-3.75zm-2.8125 11.5625c-.245996 1.14329-.490078 2.28787-.71875 3.4375.2284-1.143.472744-2.2978.71875-3.4375zm-1.4375 7.21875c-.17714.97736-.335441 1.95581-.5 2.9375.165564-.98068.321573-1.9589.5-2.9375zm449.34375 35c.0321 1.29348.0525 2.58165.0625 3.875-.009-1.29498-.0315-2.58462-.0625-3.875zm-.53125 22.5c-.0983 1.32436-.22237 2.64639-.34375 3.96875.12079-1.31863.2453-2.64301.34375-3.96875zm-15.5 67.28125c-.3624.91023-.71926 1.81262-1.09375 2.71875.37561-.90672.72953-1.80586 1.09375-2.71875zm-7.59375 16.96875c-.45678.91884-.90519 1.8365-1.375 2.75.46784-.90754.91902-1.83511 1.375-2.75zm-3.59375 6.9375c-.61465 1.13566-1.2399 2.27961-1.875 3.40625.63725-1.12805 1.25649-2.26589 1.875-3.40625zm-68.625 77.15625c-1.01631.71887-2.03792 1.42511-3.0625 2.125 1.02095-.69664 2.05336-1.41205 3.0625-2.125z"
       fill="#538cdf"
       id="path4"
       style="fill:#81a1c1;fill-opacity:1" />
    <path
       d="m45.1875 167.625c-33.629633 75.62504-24.433208 166.99318 31.46875 235.5 64.8405 79.46081 172.39314 103.49563 262.46875 66.03125 6.24529-18.12137 10.27704-37.35842 11.75-57.375 3.26386-44.35382-6.49375-86.65669-26-123.1875-87.08341 29.72832-187.22596 4.25442-248.8125-71.21875-12.689245-15.55044-22.954611-32.29562-30.875-49.75zm433.46875 86.5c.031 1.29038.0534 2.58002.0625 3.875-.01-1.29335-.0304-2.58152-.0625-3.875zm-.53125 22.5c-.0985 1.32574-.22296 2.65012-.34375 3.96875.12138-1.32236.24549-2.64439.34375-3.96875zm-15.5 67.28125c-.36422.91289-.71814 1.81203-1.09375 2.71875.37449-.90613.73135-1.80852 1.09375-2.71875zm-7.59375 16.96875c-.45598.91489-.90716 1.84246-1.375 2.75.46981-.9135.91822-1.83116 1.375-2.75zm-3.59375 6.9375c-.61851 1.14036-1.23775 2.2782-1.875 3.40625.6351-1.12664 1.26035-2.27059 1.875-3.40625zm-3.8125 6.75c-1.31156 2.23109-2.67818 4.4451-4.0625 6.625 1.39037-2.19282 2.75345-4.39333 4.0625-6.625zm-4.0625 6.625c-.69216 1.08995-1.38374 2.17313-2.09375 3.25.70979-1.07796 1.40394-2.16206 2.09375-3.25zm-4.25 6.46875c-3.6382 5.31793-7.50034 10.46606-11.5625 15.4375 4.0935-5.0076 7.95449-10.15863 11.5625-15.4375zm-11.5625 15.4375c-.81243.99429-1.64003 1.9889-2.46875 2.96875.8345-.98582 1.65343-1.97137 2.46875-2.96875zm-2.46875 2.96875c-2.48616 2.93955-5.02754 5.78764-7.65625 8.59375 2.63807-2.81243 5.18579-5.67531 7.65625-8.59375zm-7.65625 8.59375c-.87624.93537-1.76462 1.89234-2.65625 2.8125.89872-.92597 1.77613-1.87421 2.65625-2.8125zm-2.65625 2.8125c-.89163.92016-1.7807 1.814-2.6875 2.71875.9037-.90031 1.80184-1.80624 2.6875-2.71875zm-11.1875 10.78125c-.90779.81718-1.82923 1.6038-2.75 2.40625.91932-.8004 1.84662-1.59412 2.75-2.40625zm-2.75 2.40625c-.96523.84119-1.92697 1.67518-2.90625 2.5.97937-.82445 1.9443-1.66248 2.90625-2.5zm-18.21875 14.3125c-1.00914.71295-2.04155 1.42836-3.0625 2.125 1.02458-.69989 2.04619-1.40613 3.0625-2.125zm-12.90625 8.5c-2.06861 1.26035-4.13972 2.49268-6.25 3.6875 2.10283-1.19151 4.17541-2.42223 6.25-3.6875zm-6.5625 3.875c-1.08671.61298-2.18384 1.1859-3.28125 1.78125 1.09181-.59272 2.19657-1.16897 3.28125-1.78125zm-3.28125 1.78125c-1.1304.61325-2.26471 1.21814-3.40625 1.8125 1.13498-.59132 2.27862-1.20033 3.40625-1.8125zm-6.875 3.59375c-1.15246.57528-2.3056 1.13149-3.46875 1.6875 1.15981-.55435 2.31589-1.11197 3.46875-1.6875zm-3.46875 1.6875c-1.16315.55601-2.32638 1.08846-3.5 1.625 1.1708-.53508 2.33593-1.06861 3.5-1.625z"
       fill="#7ba1db"
       id="path6" />
    <path
       d="m55.90625 146.625c-.555933.96227-1.114024 1.93481-1.65625 2.90625.540984-.96928 1.10151-1.94581 1.65625-2.90625zm340.59375 3.59375c-56.55187 0-108.27154 20.73776-147.96875 55 66.86748 43.61442 108.61716 121.31077 102.34375 206.5625-1.47296 20.01658-5.50471 39.25363-11.75 57.375 14.32657-5.96432 27.91857-13.39232 40.625-22.0625 1.02458-.69989 2.04619-1.40613 3.0625-2.125 27.24965-19.25151 50.15857-44.38032 66.75-73.75.6351-1.12664 1.26035-2.27059 1.875-3.40625.75104-1.38473 1.49572-2.78494 2.21875-4.1875.46981-.9135.91822-1.83116 1.375-2.75 2.32135-4.65763 4.49475-9.4093 6.5-14.25.37449-.90613.73135-1.80852 1.09375-2.71875 7.89969-19.79999 13.11659-41.04611 15.15625-63.3125.12138-1.32236.24549-2.64439.34375-3.96875.004-.0518-.004-.10442 0-.15625.45621-6.19965.6366-12.35925.59375-18.46875-.01-1.29335-.0304-2.58152-.0625-3.875-.82814-34.44372-9.44198-67.1926-24.25-96.4375-18.48497-4.87247-37.89075-7.46875-57.90625-7.46875zm-365.75 61.6875c-.246006 1.1397-.49035 2.2945-.71875 3.4375.228672-1.14963.472754-2.29421.71875-3.4375zm-1.4375 7.21875c-.178427.9786-.334436 1.95682-.5 2.9375.164559-.98169.32286-1.96014.5-2.9375z"
       fill="#638fd2"
       id="path8"
       style="fill:#5e81ac;fill-opacity:1" />
  </g>
  <path
     d="M 23.853516 14.699219 A 10.026072 10.026072 0 0 0 13.828125 24.724609 A 10.026072 10.026072 0 0 0 22.154297 34.595703 C 22.982272 30.259795 26.800957 26.966797 31.373047 26.966797 C 32.123134 26.966797 32.848915 27.065183 33.548828 27.232422 A 10.026072 10.026072 0 0 0 33.880859 24.724609 A 10.026072 10.026072 0 0 0 23.853516 14.699219 z M 31.373047 28.966797 C 27.835929 28.966797 24.898342 31.430206 24.164062 34.740234 A 10.026072 10.026072 0 0 0 32.853516 29.115234 C 32.375202 29.018651 31.880599 28.966797 31.373047 28.966797 z "
     id="circle12"
     style="fill:#ffffff;fill-opacity:1" />
  <circle
     style="opacity:1;fill:#ffffff;fill-opacity:0.99621211;stroke:none;stroke-width:3.40157485;stroke-linecap:round;stroke-linejoin:round;stroke-miterlimit:4;stroke-dasharray:none;stroke-dashoffset:0;stroke-opacity:0.04924245;paint-order:fill markers stroke"
     id="path4497"
     cx="31.372881"
     cy="36.355934"
     r="8.3898306" />
  <g
     aria-label="DEV"
     transform="scale(0.8708302,1.1483295)"
     style="font-style:normal;font-variant:normal;font-weight:bold;font-stretch:condensed;font-size:8.67424297px;line-height:1.25;font-family:'Roboto Condensed';-inkscape-font-specification:'Roboto Condensed, Bold Condensed';letter-spacing:0px;word-spacing:0px;fill:#638fd2;fill-opacity:1;stroke:none;stroke-width:0.21685608"
     id="text4506">
    <path
       style="fill:#638fd2;fill-opacity:1;stroke-width:0.21685608"
       d="M 25.767578 32.724609 L 25.767578 39.806641 L 27.390625 39.806641 C 27.941422 39.806641 28.396857 39.532353 28.755859 38.984375 C 29.114861 38.436396 29.292969 37.729022 29.292969 36.863281 L 29.292969 35.671875 C 29.292969 34.806133 29.114861 34.098759 28.755859 33.550781 C 28.396857 32.99956 27.941422 32.724609 27.390625 32.724609 L 25.767578 32.724609 z M 30.017578 32.724609 L 30.017578 39.806641 L 33.189453 39.806641 L 33.189453 38.703125 L 31.068359 38.703125 L 31.068359 36.699219 L 32.871094 36.699219 L 32.871094 35.59375 L 31.068359 35.59375 L 31.068359 33.833984 L 33.181641 33.833984 L 33.181641 32.724609 L 30.017578 32.724609 z M 33.361328 32.724609 L 34.863281 39.806641 L 35.955078 39.806641 L 37.457031 32.724609 L 36.353516 32.724609 L 35.457031 38.011719 L 35.416016 38.269531 L 35.394531 38.269531 L 35.353516 37.998047 L 34.464844 32.724609 L 33.361328 32.724609 z M 26.818359 33.833984 L 27.332031 33.833984 C 27.624642 33.833984 27.848488 34.00001 28.005859 34.333984 C 28.165689 34.66796 28.246094 35.110888 28.246094 35.662109 L 28.246094 36.863281 C 28.246094 37.417744 28.165689 37.863954 28.005859 38.201172 C 27.848488 38.535147 27.624642 38.703125 27.332031 38.703125 L 26.818359 38.703125 L 26.818359 33.833984 z "
       transform="scale(1.1483295,0.87083019)"
       id="path4508" />
  </g>
</svg>
